X:1
T:Joannes est nomen eius - Lassus
T:#
%%score [ 1 2 3 4 ]
L:1/8
Q:1/4=200
M:none
K:C
V:1 treble nm="Soprano" snm="S"
V:2 treble nm="Alto" snm="A"
V:3 treble-8 nm="Tenor" snm="T"
V:4 bass nm="Bass" snm="B"
V:1
"^Joannes est nomen eius""^Orlando de Lassus\n(1530-94)" G16 | A4 (c8 B2 A2 | B8) c4 c4- | %3
w: Jo-|an- nes * *|* est no\-|
 c4 c4 (A8 | G8) G8- |[M:4/2] G4 (C2 D2 E2 F2) G4 | A4 B4 (c6 B2 | A4) G4 (F2 E2 G4- | %8
w: * men e\-|* ius,|* Jo- * * * an-|nes est no\- *|* men e\- * *|
 G2 ^FE F4 G8) | G8 z8 | z8 E8 | F8 G8 | A12 A4 | B4 c8 (A4- | A2 G2 G6 ^FE F4) | G8 z8 | %16
w: |ius:|vi-|num et|si- ce-|ram non bi\-||bet,|
 z4 E4 G4 G4 | A4 A4 A4 ^F4 | G8 E8 | z8 z4 B4 | B4 B4 c4 c4 | A4 G4 A8 | B8 z8 | z8 G8 | %24
w: et in na-|ti- vi- ta- te|e- ius,|et|in na- ti- vi-|ta- te e-|ius|mul-|
 A4 F4 G4 A4 | z8 G8 | A4 F4 G4 E4 | B8 c4 c4 | A4 G4 z4 A4- | %29
w: ti gau- de- bunt,|mul-|ti gau- de- bunt,|mul- ti gau-|de- bunt, mul\-|
 A4[Q:1/4=198] B4[Q:1/4=195] c4[Q:1/4=192] A4 |[Q:1/4=188] G8[Q:1/4=183] G8 | %31
w: * ti gau- de-|bunt, mul-|
[Q:1/4=179] G4[Q:1/4=176] G4[Q:1/4=172] A8 |[Q:1/4=170] G16 |] %33
w: ti gau- de-|bunt.|
V:2
 E16 | F4 E4 G8 | z4 G4 G4 G4 | A8 z4 F4- | F4 E4 D8 |[M:4/2] E8 z4 C4 | C4 D4 E4 E4 | %7
w: Jo-|an- nes est,|Jo- an- nes|est no\-|* men e\-|ius, Jo-|an- nes est no-|
 (F4 E2 D2 C4) D4 | (E4 D2 C2 B,4) B,4- | B,4 C8 D4- | D4 (E6 D2 C2 B,2 | A,6) A,2 C4 B,4 | %12
w: men * * * e-|ius: * * * vi\-|* num et|* si\- * * *|* ce- ram non|
 C4 (D6 CB, C4) | E6 E2 A,4 C4 | (C2 B,2 B,2 A,G, A,8) | G,8 z8 | z4 E4 E4 E4 | F4 F4 (E4 D2 C2 | %18
w: bi- bet, * * *|si- ce- ram non|bi\- * * * * *|bet,|et in na-|ti- vi- ta\- * *|
 B,2 C2 B,4) B,4 C4- | C4 D4 z4 E4 | G4 G4 A4 G4 | ^F4 (G6 FE F4) | (G6 F2 E4) A,4 | z4 D8 E4 | %24
w: * * * te e\-|* ius, et|in na- ti- vi-|ta- te * * *|e\- * * ius|mul- ti|
 C4 (D6 E2 F2 E2 | A2 G2 F2 E2 D4) G,4 | z4 D4 E4 C4 | D8 E8 | z4 D4 E4 C4 | D4 D4 z2 C4 D2 | %30
w: gau- de\- * * *|* * * * * bunt,|mul- ti gau-|de- bunt,|mul- ti gau-|de- bunt, mul- ti|
 B,4 (C6 B,A, B,4) | C16- | C16 |] %33
w: gau- de\- * * *|bunt.||
V:3
 z8 c8- | c8 d8 | d8 e8 | (f6 ed c4) d4- | d4 (c6 BA B4) |[M:4/2][K:treble-8] c4 g8 (e4- | %6
w: Jo\-|* an-|nes est|no\- * * * men|* e\- * * *|ius, Jo- an\-|
 e2 f2 g4) g4 c4 | (c6 B2 A4) G4 | (c8 d8) | e8 z8 | B8 c8- | c4 d4 e4 d4 | f8 e8 | g8 (c6 d2 | %14
w: * * * nes est|no\- * * men|e\- *|ius:|vi- num|* et si- ce-|ram non|bi- bet, *|
 e4 d2 c2 d8) | z4 B4 B4 B4 | c4 c4 B4 c4 | c12 A4 | z4 e4 g4 g4 | a4 a4 (g6 f2 | e4) d4 f4 e4 | %21
w: |et in na-|ti- vi- ta- te|e- iua,|et in na-|ti- vi- ta\- *|* te e- ius|
 z8 z4 d4- | d4 e4 c4 (d4- | d2 c2 B2 A2 B4) c4 | z8 z4 c4- | c4 d4 B4 (c4- | c2 A2 _B2 A2 c4) G4 | %27
w: mul\-|* ti gau- de\-|* * * * * bunt,|mul\-|* ti gau- de\-|* * * * * bunt,|
 z4 g8 a4 | f4 (g8 f2 e2 | f4) g4 e4 f4 | d4 e4 d4 d4 | e4 e4 f8 | e16 |] %33
w: mul- ti|gau- de\- * *|* bunt, mul- ti|gau- de- bunt, mul-|ti gau- de-|bunt.|
V:4
 C16 | A,8 G,8- | G,8 C8 | F,16 | G,8 G,8 |[M:4/2] C,8 C8 | A,4 G,4 (C2 B,2 A,2 G,2 | F,4) C8 B,4 | %8
w: Jo-|an- nes|* est|no-|men e-|ius, Jo-|an- nes est * * *|* no- men|
 A,8 G,8 | E,8 F,8 | G,8 (A,6 G,2 | F,4) D,4 C,4 G,4 | (F,4 E,2 D,2 A,6 G,F, | E,4 D,2 C,2 F,8 | %14
w: e- ius:|vi- num|et si\- *|* ce- ram non|bi\- * * * * *||
 E,8) D,8 | z4 E,4 G,4 G,4 | A,4 A,4 E,4 C,4 | (F,6 G,2 A,4) D,4 | z4 E,4 E,4 E,4 | F,4 F,4 E,8- | %20
w: * bet,|et in na-|ti- vi- ta- te|e\- * * ius,|et in na-|ti- vi ta\-|
 E,4 G,4 F,4 C,4 | z16 | G,8 A,4 F,4 | G,12 C,4 | F,4 _B,8 A,4 | F,4 D,4 z4 E,4 | F,4 D,4 C,8 | %27
w: * te e- ius||mul- ti gau-|de- bunt,|mul- ti gau-|de- bunt, mul-|ti gau- de-|
 G,8 C8 | D4 B,4 C4 A,4 | z4 G,4 A,4 F,4 | G,16 | C,4 C,4 F,8 | C,16 |] %33
w: bunt, mul-|ti gau- de- bunt,|mul- ti gau-|de-|bunt, gau- de-|bunt.|

